remix/Document/folder-lock-line.svg

<svg viewBox="0 0 24 24" fill="currentColor" xmlns="http://www.w3.org/2000/svg"><path d="M12.4142 5H21C21.5523 5 22 5.44772 22 6V20C22 20.5523 21.5523 21 21 21H3C2.44772 21 2 20.5523 2 20V4C2 3.44772 2.44772 3 3 3H10.4142L12.4142 5ZM4 5V19H20V7H11.5858L9.58579 5H4ZM15 13H16V17H8V13H9V12C9 10.3431 10.3431 9 12 9C13.6569 9 15 10.3431 15 12V13ZM13 13V12C13 11.4477 12.5523 11 12 11C11.4477 11 11 11.4477 11 12V13H13Z"/></svg>

<svg viewBox="0 0 24 24" xmlns="http://www.w3.org/2000/svg"><path fill="none" d="M0 0h24v24H0Z"/><path d="M12.414 5H21v0c.55 0 1 .44 1 1v14 0c0 .55-.45 1-1 1H3v0c-.56 0-1-.45-1-1V4v0c0-.56.44-1 1-1h7.414l2 2ZM4 5v14h16V7h-8.414l-2-2H4Zm11 8h1v4H8v-4h1v-1 0c0-1.66 1.34-3 3-3 1.65 0 3 1.34 3 3v1Zm-2 0v-1 0c0-.56-.45-1-1-1 -.56 0-1 .44-1 1v1h2Z"/></svg>
